media/preview-large.svg

<svg width="30" height="20" viewBox="0 0 30 20" xmlns="http://www.w3.org/2000/svg"><path d="M25 17.5c1.375 0 2.5-1.125 2.5-2.5v-12.5c0-1.375-1.125-2.5-2.5-2.5h-20a2.507 2.507 0 0 0-2.5 2.5v12.5c0 1.375 1.125 2.5 2.5 2.5h-5v2.5h30v-2.5h-5zm-20-15h20v12.5h-20v-12.5z" fill="#4A4A4A" fill-rule="evenodd"/></svg>

<svg width="30" height="20" viewBox="0 0 30 20" xmlns="http://www.w3.org/2000/svg"><path d="M25 17.5c1.375 0 2.5-1.125 2.5-2.5V2.5C27.5 1.125 26.375 0 25 0H5a2.507 2.507 0 0 0-2.5 2.5V15c0 1.375 1.125 2.5 2.5 2.5H0V20h30v-2.5h-5zM5 2.5h20V15H5V2.5z" fill="#4A4A4A" fill-rule="evenodd"/></svg>
